assets/mouse-right.svg

<svg xmlns="http://www.w3.org/2000/svg" width="750" height="750"><path d="M372.015 6.653C363.771 9.288 356.753 20.837 351.086 27c-16.409 17.842-32.782 35.805-48.801 54-5.908 6.712-19.883 17.683-11.582 27.656 3.102 3.726 7.916 3.342 12.297 3.344h142c4.057 0 9.137.775 12.985-.742 14.795-5.836-.44-21.295-5.7-27.258-18.127-20.554-36.569-40.9-55.196-61-6.339-6.84-13.945-19.905-25.074-16.347z" fill="#ccc"/><path d="M324 91h104c-10.664-15.152-25.274-28.007-37.424-42-2.966-3.415-9.654-13.793-14.576-13.793-4.922 0-11.61 10.378-14.576 13.793-12.15 13.993-26.76 26.848-37.424 42z" fill="#111"/><path d="M352.667 133.333c-.445.445.611.389.666.334.445-.445-.611-.389-.666-.334m5 1c-.445.445.611.389.666.334.445-.445-.611-.389-.666-.334M325 152.428c-13.554 1.941-26.723 5.721-39 11.82-10.463 5.197-20.529 11.695-29 19.791-10.594 10.126-19.688 21.035-26.691 33.961C209.953 255.571 216 300.85 216 342v74c0 24.316-.313 47.38 6.427 71C243.906 562.268 322.688 609.529 399 598.572a160.441 160.441 0 0 0 49-15.325c13.357-6.679 26.162-14.927 37-25.286 22.324-21.339 39.03-47.841 46.525-77.961 5.111-20.54 4.475-41.01 4.475-62V291c0-8.883.77-18.174-.286-27-2.778-23.231-11.232-45.499-25.729-64-20.531-26.203-50.906-43.651-83.985-47.714-15.907-1.953-32.973-.286-49-.286-16.927 0-35.242-1.971-52 .428z" fill="#ccc"/><path d="M238 279l127 1V173c-19.269 0-38.527-.279-57 6.079-42.762 14.716-70 55.367-70 99.921z" fill="#111"/><path d="M153 283.562c-9.159 2.278-17.224 13.148-24 19.268-16.66 15.048-33.574 29.841-50 45.145-6.629 6.176-19.728 13.636-18.876 24.025.72 8.777 11.985 15.487 17.876 20.975 18.093 16.858 36.648 33.279 55 49.855 6.143 5.549 15.572 17.847 24.996 15.597 3.389-.809 6.417-3.072 7.49-6.467 2.891-9.144.514-22.389.514-31.96V313c0-9.535 3.796-33.617-13-29.438m439.004.095c-6.02 1.838-6.974 6.793-7.003 12.343-.046 8.666-.001 17.334-.001 26v107c0 9.378-3.776 33.706 13 29.414 9.283-2.375 18.183-14.008 25-20.325 16.463-15.256 33.578-29.813 50-45.114 6.58-6.131 19.288-13.552 17.782-23.974-1.259-8.719-12.795-15.447-18.782-21.026-17.763-16.55-36.129-32.454-54-48.889-6.392-5.879-15.995-18.484-25.996-15.429z" fill="#ccc"/><path d="M238 301v107c0 31.246-1.039 60.869 12.309 90 6.711 14.646 16.389 28.52 27.781 39.911 49.617 49.614 131.972 53.014 185.91 8.625 11.78-9.694 21.936-21.581 29.935-34.536 11.384-18.436 17.848-39.498 19.895-61 1.405-14.751.17-30.181.17-45V301H238m-94 18c-13.035 12.999-27.1 25.355-41 37.424-3.39 2.944-13.793 9.656-13.793 14.541 0 4.831 10.461 11.383 13.793 14.32 13.903 12.258 26.862 27.051 42 37.715v-92c0-3.983.552-8.301-1-12m462 0v104c15.138-10.663 28.004-25.423 42-37.576 3.41-2.961 6.67-6.067 9.98-9.139 1.501-1.393 3.813-3.012 3.813-5.31 0-4.737-10.478-11.672-13.793-14.551-13.99-12.151-26.852-26.763-42-37.424z" fill="#111"/><path d="M560 339l1 1-1-1M293.043 639.742c-13.731 5.567-.477 20.442 4.871 26.258 19.168 20.843 37.749 42.229 56.997 63 5.892 6.358 13.673 19.219 24.089 15.258 9.113-3.466 17.009-16.138 23.285-23.258 15.178-17.215 31.241-33.673 46.291-51 5.846-6.731 20.087-17.865 11.771-27.772-3.116-3.713-7.969-3.226-12.347-3.228H306c-4.025 0-9.151-.801-12.957.742z" fill="#ccc"/><path d="M324 660c3.167 6.791 9.835 12.568 14.965 18 7.67 8.122 15.133 16.566 22.459 25 2.695 3.103 9.124 12.793 13.576 12.793 2.281 0 3.904-2.325 5.285-3.813 3.072-3.31 6.178-6.57 9.139-9.98 12.153-13.996 26.913-26.862 37.576-42H324z" fill="#111"/></svg>

<?xml version="1.0" standalone="yes"?>
<svg xmlns="http://www.w3.org/2000/svg" width="750" height="750">
<path style="fill:#ccc; stroke:none;" d="M372.015 6.65277C363.771 9.28821 356.753 20.8369 351.086 27C334.677 44.8424 318.304 62.8052 302.285 81C296.377 87.7115 282.402 98.6832 290.703 108.656C293.805 112.382 298.619 111.998 303 112L330 112L419 112L445 112C449.057 112 454.137 112.775 457.985 111.258C472.78 105.422 457.545 89.9634 452.285 84C434.158 63.4462 415.716 43.1008 397.089 23C390.75 16.1598 383.144 3.09479 372.015 6.65277z"/>
<path style="fill:#111; stroke:none;" d="M324 91L428 91C417.336 75.8477 402.726 62.9926 390.576 49C387.61 45.5846 380.922 35.2068 376 35.2068C371.078 35.2068 364.39 45.5846 361.424 49C349.274 62.9926 334.664 75.8476 324 91z"/>
<path style="fill:#ccc; stroke:none;" d="M352.667 133.333C352.222 133.778 353.278 133.722 353.333 133.667C353.778 133.222 352.722 133.278 352.667 133.333M357.667 134.333C357.222 134.778 358.278 134.722 358.333 134.667C358.778 134.222 357.722 134.278 357.667 134.333M325 152.428C311.446 154.369 298.277 158.149 286 164.248C275.537 169.445 265.471 175.943 257 184.039C246.406 194.165 237.312 205.074 230.309 218C209.953 255.571 216 300.85 216 342L216 416C216 440.316 215.687 463.38 222.427 487C243.906 562.268 322.688 609.529 399 598.572C416.08 596.119 432.586 590.954 448 583.247C461.357 576.568 474.162 568.32 485 557.961C507.324 536.622 524.03 510.12 531.525 480C536.636 459.46 536 438.99 536 418L536 342L536 291C536 282.117 536.77 272.826 535.714 264C532.936 240.769 524.482 218.501 509.985 200C489.454 173.797 459.079 156.349 426 152.286C410.093 150.333 393.027 152 377 152C360.073 152 341.758 150.029 325 152.428z"/>
<path style="fill:#111; stroke:none;" d="M238 279L365 280L365 173C345.731 173 326.473 172.721 308 179.079C265.238 193.795 238 234.446 238 279z"/>
<path style="fill:#ccc; stroke:none;" d="M153 283.562C143.841 285.84 135.776 296.71 129 302.83C112.34 317.878 95.4256 332.671 79 347.975C72.3715 354.151 59.2724 361.611 60.1242 372C60.8438 380.777 72.1092 387.487 78 392.975C96.0933 409.833 114.648 426.254 133 442.83C139.143 448.379 148.572 460.677 157.996 458.427C161.385 457.618 164.413 455.355 165.486 451.96C168.377 442.816 166 429.571 166 420L166 313C166 303.465 169.796 279.383 153 283.562M592.004 283.657C585.984 285.495 585.03 290.45 585.001 296C584.955 304.666 585 313.334 585 322L585 429C585 438.378 581.224 462.706 598 458.414C607.283 456.039 616.183 444.406 623 438.089C639.463 422.833 656.578 408.276 673 392.975C679.58 386.844 692.288 379.423 690.782 369.001C689.523 360.282 677.987 353.554 672 347.975C654.237 331.425 635.871 315.521 618 299.086C611.608 293.207 602.005 280.602 592.004 283.657z"/>
<path style="fill:#111; stroke:none;" d="M238 301L238 408C238 439.246 236.961 468.869 250.309 498C257.02 512.646 266.698 526.52 278.09 537.911C327.707 587.525 410.062 590.925 464 546.536C475.78 536.842 485.936 524.955 493.935 512C505.319 493.564 511.783 472.502 513.83 451C515.235 436.249 514 420.819 514 406L514 301L238 301M144 319C130.965 331.999 116.9 344.355 103 356.424C99.6096 359.368 89.2068 366.08 89.2068 370.965C89.2068 375.796 99.6684 382.348 103 385.285C116.903 397.543 129.862 412.336 145 423L145 351L145 331C145 327.017 145.552 322.699 144 319M606 319L606 423C621.138 412.337 634.004 397.577 648 385.424C651.41 382.463 654.67 379.357 657.98 376.285C659.481 374.892 661.793 373.273 661.793 370.975C661.793 366.238 651.315 359.303 648 356.424C634.01 344.273 621.148 329.661 606 319z"/>
<path style="fill:#ccc; stroke:none;" d="M560 339L561 340L560 339M293.043 639.742C279.312 645.309 292.566 660.184 297.914 666C317.082 686.843 335.663 708.229 354.911 729C360.803 735.358 368.584 748.219 379 744.258C388.113 740.792 396.009 728.12 402.285 721C417.463 703.785 433.526 687.327 448.576 670C454.422 663.269 468.663 652.135 460.347 642.228C457.231 638.515 452.378 639.002 448 639L421 639L332 639L306 639C301.975 639 296.849 638.199 293.043 639.742z"/>
<path style="fill:#111; stroke:none;" d="M324 660C327.167 666.791 333.835 672.568 338.965 678C346.635 686.122 354.098 694.566 361.424 703C364.119 706.103 370.548 715.793 375 715.793C377.281 715.793 378.904 713.468 380.285 711.98C383.357 708.67 386.463 705.41 389.424 702C401.577 688.004 416.337 675.138 427 660L324 660z"/>
</svg>
